X:1109
M:6/4
L:1/8
Q:1/4=104
K:D Minor
   d3  f``ed ^c2A2de|f4  f2 e4  d2|dc`BA``GF  G3 BAG| F2 D2  D2  D4   :|
   F2 FG``FG  c2A2A2|B2G2G2 f4  ed|dc`BA``GF  GFGBAG| F2 D2  D2  D4   :|

